X:1
T:Beautiful Homeland
T:Beautiful Homeland
T:George B. Holsinger
T:Laura E. Newell, 1902
T:Public Domain Courtesy of the Cyber Hymnal™
T:Public Domain Courtesy of the Cyber Hymnal™
C:George B. Holsinger
Z:Public Domain
Z:Courtesy of the Cyber Hymnal™
%%score ( 1 2 ) ( 3 4 )
L:1/8
Q:1/4=80
M:6/8
K:F
V:1 treble 
V:2 treble 
V:3 bass 
V:4 bass 
V:1
 [Fc] | [Fc]>[Fd][Fc] [Fc][FA]F | [FA]C[CG] [CF]2 [FA] | [FB]>[FB][FB] [Fd][Fc][FB] | %4
w: 1.~A|ci- ty a- waits us we|soon shall be- hold, Whose|walls are of jas- per, whose|
w: 2.~The|friends that we love who have|gone on be- fore, Now|wait for our com- ing on|
w: 3.~O|home- land, dear home- land! tho’|eye hath not seen, And|some- times the sha- dow- y|
 [FA][EG][F=B] [Ec]2 [Ec] | [Fc]>[Fd][Fc] [Fc][FA]F | [FA]C[CG] [CF]2 [_EA]/[EA]/ | %7
w: streets are of gold; Not|half of its glo- ries have|ev- er been told, Bless- èd|
w: yon- der bright shore, Where|day nev- er fades, tears may|fall nev- er- more, Bless- èd|
w: clouds in- ter- vene, Thy|light we’ll be- hold, and thy|pas- tures so green, Bless- èd|
 [DB]<[Fd][FB] [FA]<[Fc]"^riten."[GB] | [FA]>[CF][CG] [CF]2 ||"^Refrain" [Fc]/[Fc]/ | %10
w: home- land, dear home- land, sweet|home of the soul.|Oh, I|
w: home- land, dear home- land, sweet|home of the soul.||
w: home- land, dear home- land, sweet|home of the soul.||
 [Ec]>[EG][EG] [EG][FA][GB] | A3- [FA]2 [FA]/[FA]/ | [FA]>[FG][FG] [Fd][Ge][Fd] | %13
w: long, yes I long there to|dwell, Mid the plea-|* sures no mor- tal can|
w: |||
w: |||
 c3- !fermata![Gc]2 [Ec]/[Ec]/ | [Fc]>[Fd][Fc] [Fc][FA]F | [FA]C[CG] [B,F]2 [_EA]/[EA]/ | %16
w: tell, In the place|* our dear Sav- ior has|gone to pre- pare, Bless- èd|
w: |||
w: |||
 [DB]<[Fd][FB] [FA]<[Fc]"^riten."[GB] | [FA]>[CF][CG] [CF]2 |] %18
w: home- land, dear home- land, sweet|home of the soul.|
w: ||
w: ||
V:2
 x | x5 F | x C x4 | x6 | x6 | x5 F | x C x4 | x6 | x5 || x | x6 | F>FF x3 | x6 | EEF x3 | x5 F | %15
 x C x4 | x6 | x5 |] %18
V:3
 [F,A,] | [F,A,]>[F,B,][F,A,] [F,A,][F,C][F,A,] | [C,C][C,A,][C,B,] [F,A,]2 [F,C] | %3
w: ~|~ ~ ~ ~ ~ ~|~ ~ ~ ~ ~|
 [B,,D]>[B,,D][B,,D] [B,,B,][B,,C][B,,D] | [F,C][G,C]G, [C,G,]2 [C,B,] | %5
w: ~ ~ ~ ~ ~ ~|~ ~ ~ ~ ~|
 [F,A,]>[F,B,][F,A,] [F,A,][F,C][F,A,] | [C,C][C,A,][C,B,] [F,A,]2 [F,C]/[F,C]/ | %7
w: ~ ~ ~ ~ ~ ~|~ ~ ~ ~ ~ ~|
 [B,,B,]<[B,,B,][B,,D] [F,C]<[F,A,][B,,D] | [C,C]>[C,A,][C,B,] [F,A,]2 || [F,A,]/[F,A,]/ | %10
w: ~ ~ ~ ~ ~ ~|~ ~ ~ ~|~ ~|
 [C,G,]>[C,C][C,C] [C,C][C,C][C,C] | [F,C]>[F,C][F,C] [F,C]2 [F,C]/[F,C]/ | %12
w: ~ ~ ~ ~ ~ ~|~ there to dwell ~ ~|
 [G,=B,]>[G,B,][G,B,] [G,B,][G,B,][G,B,] | CG,A, !fermata![C,B,]2 [C,G,]/[C,G,]/ | %14
w: ~ ~ ~ ~ ~ no|mor- tal can tell * *|
 [F,A,]>[F,B,][F,A,] [F,A,][F,C][F,A,] | [C,C][C,A,][C,B,] [F,A,]2 [F,C]/[F,C]/ | %16
w: ||
 [B,,B,]<[B,,B,][B,,D] [F,C]<[F,A,][B,,D] | [C,C]>[C,A,][C,B,] [F,A,]2 |] %18
w: ||
V:4
 x | x6 | x6 | x6 | x2 G, x3 | x6 | x6 | x6 | x5 || x | x6 | x6 | x6 | C,3- x3 | x6 | x6 | x6 | %17
 x5 |] %18

